X:24
T: Boogie Reel
C: John Nolan
Z: transcribed by B. Black
Q: 350
R: reel
M: 4/4
L: 1/8
K: D
FE | DEFA dcdA | BAFB AFEF | DEFA dfec | dBAF EGFE |
DEFA dcde | fd d2 BAFA | e2 ef gece | dAFA d2 :|
cd | eA (3AAA EA (3AAA | ecef g2 fe | fd d2 Ad d2 | fgaf d2 cd |
Be e2 Beed | cdef g2 fg | afdf gece | dAFA d2 :|
